!!!SOCIAL_FUNCTION:	love songs
!!!PDT:	1913
!!!OTL: No_178_He_Is_Going_Away.krn
!!!REG: Great_Lakes
!!!LANG: Non-Tone
!!!LING_GROUP: Algonquin
**kern
*staff1
=1-
*clefG2
*k[b-]
*M2/4
8.cc\L
16dd\Jk
8.cc/L
16g/Jk
=2
4f/
4g/
=3||
*M3/4
(16.cc\LL
32dd\K)
16cc\
16g\JJ
8.g/L
16f/Jk
8g/L
8f/J
=4||
*M2/4
4d/
8.c/L
16f/Jk
=5
4f/
8.d/L
16g/Jk
=6||
*M3/4
4g/
4f/
12f/L
8d/
24f/Jk
=7
4d/
2c/
==
*-
